X:101
T:Cannie Hobbie Elliot
Z:Jack Campin, http://www.campin.me.uk/
S:Northumbrian Minstrelsy
M:9/8
L:1/8
K:G
c|B2d       c2B       ABc|B2d       e2f       g3 | 
  B2d       c2B       ABc|BAB       cGE       D2:|
c|dB/c/d/B/ dB/c/d/B/ ABc|dB/c/d/B/ dB/c/d/B/ g2
e|dB/c/d/B/ dB/c/d/B/ ABc|BAB       cGE       D2:|

